X:3067
T:Clannad jig
T:Behind the bush in the garden
R:Jig
O:Ireland
M:6/8
K:ADor
B|\
c2A AGE|c2A AGE|G2A GFD|GAG GFD|\
c2d e2a|g2e d2e|c2A BAG|A3 A2::
B|\
c2B c2d|e2=f e2d|c2B c2d|e2c A2B|\
c2B c2d|e2=f e2d|cBA BAG|A3 A2:|


